X: 1
T:Polska i Gm frn Haver
A:Haver, Medelpad
O:Sweden
M:3/4
L:1/16
Q:1/4=110
K:Gm
D2|G3A BABc d4|d3g g2ag ^f2d2|d2=e^f g2B2 A2F2|\
G3A B2dB AcA^F|G3A BABc d4|d3g g2ag ^f2d2|\
d2=e^f g2B2 A2GB|[1D2^FA G6:|[2D2^FA G8|:\
d3g g2f2 d2c2|f3e dedc d2B2|B2g2 g2f2 d2c2|\
f3e dedc d2B2|AcA^F G3A B2d2|cAce d2d2 A4|\
d3g g2f2 d2c2|f3e dedc d2B2|B2g2 g2f2 d2c2|\
f3e dedc d2B2|AcA^F G3A B2dB|AcA^F G8:|\
T:Andrastmma
G,2|B,3D G^FGA B4|D3B B2cB A2^F2|^F2GA B2D2 C2A,2|\
B,3^F G2BG D2CA,|B,3^F GFGA B4|D3B B2cB A2^F2|\
^F2GA B2G2 F2D2|[1D2CA, [B,6D6]:|[2D2CA, [B,8D8]|:\
B3e e2d2 B2A2|d3c BcBA B2G2|G2e2 e2d2 B2A2|\
d3c BcBA B2G2|^F2DC D3F G2B2|A^FAc B2B2 [A,4D4]|\
B3e e2d2 B2A2|d3c BcBA B2G2|G2e2 e2d2 B2A2|\
d3c BcBA B2G2|^F2DC D3F G2BG|D2CA, [B,8D8]:|
